X: 1
T: New Knees
T: 4x32J 3C (Roger Gilbert)
P: The New Knees
R: jig
C: by Terry Traub, 7-15-2012
C: for MaryEllen Scannell
M: 6/8
L: 1/8
K: G
|: "Em"B2 E EFG|"Am"BAG "Bm"FGA|"Em"B2 E EFG|"Am"ABG "D"FGA|"Em"B2 E EFG|"Am"BAG "Bm"FGA|"Em"BeB "D"dAc|"Bm"BFG "Em"E3 :|
|: "C"e2 e edB|"D"AGA "G"B2 G|"C"cBA "G"BAG|"D"AGA "G"B2 d|"C"e2 e edB|"D"AGA "G"B2 d|"C"ece "D"dAc |"Bm"BFG "Em"E3 :|